X: 1
T: String Quartet in G Minor opus 20 no 3 mvt 2
C: Franz Joseph Haydn
%%abc-version 2.0
%%abcx-abcm2ps-target-version 5.9.1 (29 Sep 2008)
%%abc-creator hum2abc beta
%%abcx-conversion-date 2021/02/14 14:38:28
%%abc-copyright Copyright (c) 1994, 2000 Center for Computer Assisted Research in the Humanities
%%abc-edited-by Frances Bennion
%%abcx-initial-encoding-date 1997/04/15
%%gracespace 0 6 6
%%humdrum-veritas 3845937436
%%humdrum-veritas-data 718804326
%%linebreak <none>
%%barnumbers 0
L: 1/4
M: 3/4
N: Derived from op20n3-02.krn
Q: "Menuetto: Allegretto"
%%staves [1 2 3 4]
V: 1
V: 2
V: 3 clef=alto
V: 4 clef=bass
K: Bb
[V:1]z2 D [I:setbarnb1] |
[V:2]z2 z |
[V:3]z2 z |
[V:4]z2 z |
[V:1]B A G |
[V:2]B, C D |
[V:3]z3 |
[V:4]G, A, B, |
[V:1]G G G |
[V:2]E2 D |
[V:3]z2 D |
[V:4]C2 B, |
[V:1]c c d |
[V:2]^F3- |
[V:3]C3- |
[V:4]A,3- |
[V:1]e2 e |
[V:2]F3- |
[V:3]C3- |
[V:4]A,3- |
[V:1]d z D |
[V:2]F z2 |
[V:3]C z2 |
[V:4]A, z2 |
[V:1]B A G |
[V:2]B, C D |
[V:3]z3 |
[V:4]G, A, B, |
[V:1]G G A |
[V:2]E3 |
[V:3]z2 C |
[V:4]C2 F, |
[V:1]B d d |
[V:2]D F F |
[V:3]D2 =B, |
[V:4]B, A, ^G, |
[V:1]f2 =e |
[V:2]d2 ^c |
[V:3]A,2 G |
[V:4]A,3 |
[V:1]d z D |
[V:2]d z z |
[V:3]F z z |
[V:4]D, z z |
[V:1]d c B |
[V:2]D E F |
[V:3]z A B |
[V:4]B, C D |
[V:1]B B B |
[V:2]G2 F |
[V:3]G z2 |
[V:4]E2 D |
[V:1]e d c |
[V:2]E F G |
[V:3]z =B c |
[V:4]C D E |
[V:1]c c c |
[V:2]A2 G |
[V:3]A z2 |
[V:4]F2 E |
[V:1]f e d |
[V:2]F G A |
[V:3]z c d |
[V:4]D E F |
[V:1]d d =e |
[V:2]B d c |
[V:3]B3- |
[V:4]G3 |
[V:1]f3- |
[V:2]c c d |
[V:3]B A B |
[V:4]F3- |
[V:1]f3 |
[V:2]e c d- |
[V:3]c A B- |
[V:4]F3 |
[V:1]g3- |
[V:2]d c c |
[V:3]B A A |
[V:4]E3- |
[V:1]g f f |
[V:2]c3- |
[V:3]A3- |
[V:4]E3- |
[V:1]f g a |
[V:2]c3 |
[V:3]A G F |
[V:4]E3 |
[V:1]b c' d' |
[V:2]f a b |
[V:3]F E D |
[V:4]D C B, |
[V:1]d2 c |
[V:2]B2 A |
[V:3]F2 F, |
[V:4]F2 F, |
[V:1]B3- |
[V:2]B z B, |
[V:3]B, z2 |
[V:4]B, z2 |
[V:1]B3- |
[V:2]B _A G |
[V:3]z3 |
[V:4]z2 B,, |
[V:1]B3 |
[V:2]G F E |
[V:3]z2 B, |
[V:4]B, _A, G, |
[V:1]B3 |
[V:2]E D E |
[V:3]B, _A, G, |
[V:4]G, F, E, |
[V:1]B _A G |
[V:2]B,3- |
[V:3]F,2 B, |
[V:4]D,2 E, |
[V:1]G F E |
[V:2]B,3- |
[V:3]B, _A, G, |
[V:4]E,,3- |
[V:1]E D ^C |
[V:2]B,3- |
[V:3]G,3- |
[V:4]E,,3 |
[V:1]^C3 |
[V:2]B,3 |
[V:3]G,3 |
[V:4]D,,3- |
[V:1]D =E/^F/ G/A/ |
[V:2]A, z2 |
[V:3]^F, z2 |
[V:4]D,, z2 |
[V:1]B A G |
[V:2]B, C D |
[V:3]z3 |
[V:4]G, A, B, |
[V:1]G G G |
[V:2]E2 D |
[V:3]z2 D |
[V:4]C2 B, |
[V:1]c c d |
[V:2]^F3- |
[V:3]C3- |
[V:4]A,3- |
[V:1]e2 e |
[V:2]F3- |
[V:3]C3- |
[V:4]A,3- |
[V:1]d z2 |
[V:2]F z2 |
[V:3]C z2 |
[V:4]A, z2 |
[V:1]C C D |
[V:2]z3 |
[V:3]z3 |
[V:4]z3 |
[V:1]F2 E |
[V:2]z2 B, |
[V:3]z3 |
[V:4]z2 G, |
[V:1]D c B |
[V:2]A, A G |
[V:3]z D D |
[V:4]^F,2 G, |
[V:1]B _A A |
[V:2]E3- |
[V:3]E3 |
[V:4]C,3- |
[V:1]_A G G |
[V:2]E B, B, |
[V:3]E =E E |
[V:4]C, ^C, C, |
[V:1]G2 A/^F/ |
[V:2]B,2 C/A,/ |
[V:3]D3- |
[V:4]D,3 |
[V:1]G z G, |
[V:2]G, z G, |
[V:3]D =B, G, |
[V:4]G,,3- |
[V:1]G F E |
[V:2]E D C |
[V:3]G,3- |
[V:4]G,,3- |
[V:1]E D F |
[V:2]C =B, D |
[V:3]G, G, G, |
[V:4]G,,3- |
[V:1]F2 E |
[V:2]D2 C |
[V:3]G, z2 |
[V:4]G,, ^F,, F,, |
[V:1]D G F |
[V:2]=B, E D |
[V:3]z G, G, |
[V:4]G,,3- |
[V:1]F2 E |
[V:2]D2 C |
[V:3]G, z2 |
[V:4]G,, ^F,, F,, |
[V:1]D G F |
[V:2]=B, E D |
[V:3]z G, G, |
[V:4]G,,3- |
[V:1]F2 E |
[V:2]D2 C |
[V:3]G, ^F, F, |
[V:4]G,, ^F,, F,, |
[V:1]D z B, |
[V:2]=B, z z |
[V:3]G, z z |
[V:4]G,, z z |
[V:1]E/B,/ G,/B,/ E/B,/ |
[V:2][EG,] z2 |
[V:3]E z2 |
[V:4]E, z2 |
[V:1]G/E/ B/G/ B/G/ |
[V:2]z3 |
[V:3]z3 |
[V:4]z2 E, |
[V:1]B/_A/ F/A/ G/E/ |
[V:2]z3 |
[V:3]z3 |
[V:4]F, D, E, |
[V:1]D/E/ F/D/ B,/D/ |
[V:2]z2 B, |
[V:3]z2 F |
[V:4]B, z _A, |
[V:1]E/B,/ G,/B,/ E/B,/ |
[V:2]E2 G |
[V:3]E z2 |
[V:4]G, z2 |
[V:1]G/E/ B/G/ B/G/ |
[V:2]B3- |
[V:3]G3 |
[V:4]E, z2 |
[V:1]F/D/ B/F/ B/F/ |
[V:2]B3 |
[V:3]F2 B- |
[V:4]D, z2 |
[V:1]C/E/ F/A/ c/e/ |
[V:2]e3 |
[V:3]B A A |
[V:4]C,2 F,, |
[V:1]d/B/ A/B/ F/B/ |
[V:2]d B z |
[V:3]B z D |
[V:4]B,, z2 |
[V:1]G/B/ F/B/ A/e/ |
[V:2]z2 e |
[V:3]E D C |
[V:4]z2 F, |
[V:1]d/B/ A/B/ F/B/ |
[V:2]d B z |
[V:3]B, D D |
[V:4]B,,2 z |
[V:1]G/B/ F/B/ A/e/ |
[V:2]z2 e |
[V:3]E D C |
[V:4]z2 F, |
[V:1]d/B/ A/B/ F/_A/ |
[V:2]d B f- |
[V:3]B, D _A |
[V:4]B,,2 D, |
[V:1]G/=B/ c/e/ E/G/ |
[V:2]f G e- |
[V:3]G e G |
[V:4]E,2 C, |
[V:1]F/A/ B/d/ D/d/ |
[V:2]e F d- |
[V:3]F d F |
[V:4]D,2 B,, |
[V:1]E/d/ =E/c/ G/B/ |
[V:2]d c B |
[V:3]G3 |
[V:4]E, z =E, |
[V:1]A/F/ =E/F/ c/A/ |
[V:2]A2 c |
[V:3]C z2 |
[V:4]F, z2 |
[V:1]e/c/ A/F/ E/C/ |
[V:2]e3 |
[V:3]c3 |
[V:4]A,,3 |
[V:1]D/F/ B/D/ C/A/ |
[V:2]d B A |
[V:3]F2 E |
[V:4]B,, D, F, |
[V:1]B, z B, |
[V:2]B z z |
[V:3]D z z |
[V:4]B,, z z |
[V:1]_D/B,/ G,/B,/ G,/=E/ |
[V:2]z2 =E |
[V:3]z2 B, |
[V:4]z2 C, |
[V:1]F/C/ _D/C/ _A/C/ |
[V:2]F _A A |
[V:3]_A, z C |
[V:4]_A,, z F, |
[V:1]G/C/ _D/C/ B/C/ |
[V:2]G B B |
[V:3]C z C |
[V:4]=E, z E, |
[V:1]_A/C/ _D/C/ A/C/ |
[V:2]_A f f |
[V:3]F _A A |
[V:4]F,2 E, |
[V:1]_A/B,/ C/B,/ A/B,/ |
[V:2]f2 _A |
[V:3]_A2 F |
[V:4]D,3 |
[V:1]G/B,/ C/B,/ G/B,/ |
[V:2]G e e |
[V:3]E G G |
[V:4]E,2 D, |
[V:1]G/_A,/ B,/A,/ G/A,/ |
[V:2]e2 G |
[V:3]G2 E |
[V:4]C,3 |
[V:1]F/_A,/ B,/A,/ F/A,/ |
[V:2]F d d |
[V:3]D F F |
[V:4]D,2 C, |
[V:1]F/G,/ _A,/G,/ F/G,/ |
[V:2]d2 F |
[V:3]F2 D |
[V:4]=B,,3 |
[V:1]E/C/ =B,/C/ _A,/^F/ |
[V:2]E ^F F |
[V:3]C z C |
[V:4]C, z _A,, |
[V:1]G,/G/ ^F/G/ E/C/ |
[V:2]G z e |
[V:3]=B, z c |
[V:4]G,, z2 |
[V:1]G,/G/ ^F/G/ E/C/ |
[V:2]d z c |
[V:3]=B z E |
[V:4]G,, z2 |
[V:1]G,/G/ ^F/G/ E/C/ |
[V:2]=B z G |
[V:3]D z E |
[V:4]G,, z2 |
[V:1]G,/G/ ^F/G/ E/C/ |
[V:2]F z E |
[V:3]D z C |
[V:4]G,, z2 |
[V:1]G, z2 |
[V:2]D z2 |
[V:3]=B, z2 |
[V:4]G,, z2 |
[V:1]z3 |]
[V:2]z3 |]
[V:3]z3 |]
[V:4]z3 |]

